X:9
T: Es geht nix ueber die Gemuetlichkeit, heidi, heida
N: V0002E
O: Europa, Mitteleuropa, Deutschland, Ober - Franken, Zochenreuth
R: Geselligkeits - Lied, Gemuetlichkeit
M: 2/4
L: 1/16
K: E
B,2 | E2E2EEFE | D2C2C2A2 | D4z2B,2 | E4z2
B,B, | E2E2EEFE | D2C2C2A2 | E4z2B,2 | E4z2
GA | B2GAB2AB | c2F2F2FG | A2FGA2GA | B2E2E2G2 | E4z2B2 | E4z2

